X:168
T: A bissel sikkarisch, a bissl sakrisch,
N: D0297
O: Europa, Mitteleuropa, Oesterreich, Tirol
N: Sonderzeichen in der Notation (Glissando)
R: Jodel - Lied
M: none
L: 1/8
K: G
D2B2G2 | F2A2d3DcF | GGz
GFE | DDz2CE | d3
DBG | FAddz2fF | GGGGz2
FE | DcE2FD | G3
DBG | FAddz2fF | GGGGz2
FE | DcE2FD | G3
D6 | E6 | F6 | GdBGdG | AecAe2
FdcFdG | GgdBG2
GdBGdG | AecAe2
f3edF | G6

@@@ Tune index: 2690
